lib/healthicons/icons/outline/typography/!.svg

<svg fill="none" height="48" viewBox="0 0 48 48" width="48" xmlns="http://www.w3.org/2000/svg"><g clip-rule="evenodd" fill="#333" fill-rule="evenodd"><path d="m21 11.8182c0-1.644 1.435-2.8182 3-2.8182s3 1.1742 3 2.8182v16.3636c0 1.644-1.435 2.8182-3 2.8182s-3-1.1742-3-2.8182zm3-.8182c-.6441 0-1 .4539-1 .8182v16.3636c0 .3643.3559.8182 1 .8182s1-.4539 1-.8182v-16.3636c0-.3643-.3559-.8182-1-.8182z"/><path d="m24 35c-.5523 0-1 .4477-1 1s.4477 1 1 1 1-.4477 1-1-.4477-1-1-1zm-3 1c0-1.6569 1.3431-3 3-3s3 1.3431 3 3-1.3431 3-3 3-3-1.3431-3-3z"/></g></svg>

<svg width="48" height="48" viewBox="0 0 48 48" fill="none" xmlns="http://www.w3.org/2000/svg">
<path fill-rule="evenodd" clip-rule="evenodd" d="M21 11.8182C21 10.1742 22.435 9 24 9C25.565 9 27 10.1742 27 11.8182L27 28.1818C27 29.8258 25.565 31 24 31C22.435 31 21 29.8258 21 28.1818L21 11.8182ZM24 11C23.3559 11 23 11.4539 23 11.8182L23 28.1818C23 28.5461 23.3559 29 24 29C24.6441 29 25 28.5461 25 28.1818L25 11.8182C25 11.4539 24.6441 11 24 11Z" fill="#333333"/>
<path fill-rule="evenodd" clip-rule="evenodd" d="M24 35C23.4477 35 23 35.4477 23 36C23 36.5523 23.4477 37 24 37C24.5523 37 25 36.5523 25 36C25 35.4477 24.5523 35 24 35ZM21 36C21 34.3431 22.3431 33 24 33C25.6569 33 27 34.3431 27 36C27 37.6569 25.6569 39 24 39C22.3431 39 21 37.6569 21 36Z" fill="#333333"/>
</svg>
